X: 1
T: Unsetholmen G\aangl\aat
S: fr \AAke Steinholtz
Z: 2006 John Chambers from MS by Matt Fichtenbaum
M: 2/4
L: 1/16
K: D
V: 1 ach=0
|: "D"A2f2 e2d2 | "G"c2B2 "D"A4 | "G"B2AB "A"c2Bc |1,3 "D"d2AG FED2 :|2,4 "D"d8 :|
|: "A"e4 e4 | e2fe c2A2 | "D"f4 fefg | a2a2 f2d2 \
|  "D"ABAG FDFA | d2d2 A4 | ABAG FEDC | "A"C2D2 "D"D4 :|
V:2
|: "D"F2d2 A2F2 | "G"G2E2 "D"F4 | "G"G2EG "A"A2EA |1,3 "D"F2D2 DED2 :|2,4 "D"F8 :|
|: "A"c4 c4 | c2dc A2E2 | "D"d4 dcde | f2f2 d2A2 \
|  "D"FGFE DA,DE | F2F2 D4 | FGFE D2A,A, | "A"A,2A,2 "D"D4 :|
